X:466
T:
R:vals
S:Efter en gumma, »Nymanskan» i Burs.
O:Gotland, Burs
M:3/4
L:1/8
K:Am
ee|e2 d2 e2|c4 e2|g2 g2 a2|e4 e2|e2 d2 d2|d2 c2 c2|d2 c2 d2|e4 f2|e2 d2 c2|A2 e3 c|c2 B2 ^G2|
A4::c2|(cB) (cd) e2|(A^G) (AB) c2|(dc)(de) f2|(BA)(Bc) d2|(cd)(ef) g2|(fe)(fg) a2|(ef)(ed)(cB)|A4:|

